X:187 
T:Second-Hand Car* (reel), The 
F:file ID: cre.5/187second_hc
B:CRE5.162 (gan ainm)
M:4/4
Q:180
R:reel
K:D
DE|FAAF D2fa|gefg edBA|FAAB d2cd|B2AF E2:|
Dd|faaf d2ef|gedf edBA|faaf d2cd|b2af e2de|
faaf d2ef|gedf edBA|FAAB d2cd|B2AF E2:|

%%%

